static/img/kroki/2feaee2608db1eff312c9450b119c2ab.svg

<?xml version="1.0" encoding="us-ascii" standalone="no"?><svg xmlns="http://www.w3.org/2000/svg" xmlns:xlink="http://www.w3.org/1999/xlink" contentStyleType="text/css" height="374px" preserveAspectRatio="none" style="width:323px;height:374px;" version="1.1" viewBox="0 0 323 374" width="323px" zoomAndPan="magnify"><defs/><g><!--class certificate--><g id="elem_certificate"><rect codeLine="23" fill="#3D176E" height="39.7891" id="certificate" rx="2.5" ry="2.5" style="stroke:#000D19;stroke-width:0.5;" width="125" x="7" y="167.79"/><ellipse cx="22" cy="187.6845" fill="#ADD1B2" rx="11" ry="11" style="stroke:#181818;stroke-width:1.0;"/><path d="M24.9688,193.3252 Q24.3906,193.622 23.75,193.7627 Q23.1094,193.9189 22.4063,193.9189 Q19.9063,193.9189 18.5781,192.2783 Q17.2656,190.622 17.2656,187.497 Q17.2656,184.372 18.5781,182.7158 Q19.9063,181.0595 22.4063,181.0595 Q23.1094,181.0595 23.75,181.2158 Q24.4063,181.372 24.9688,181.6689 L24.9688,184.3877 Q24.3438,183.8095 23.75,183.5439 Q23.1563,183.2627 22.5313,183.2627 Q21.1875,183.2627 20.5,184.3408 Q19.8125,185.4033 19.8125,187.497 Q19.8125,189.5908 20.5,190.6689 Q21.1875,191.7314 22.5313,191.7314 Q23.1563,191.7314 23.75,191.4658 Q24.3438,191.1845 24.9688,190.6064 L24.9688,193.3252 Z " fill="#000000"/><text fill="#D9B8FF" font-family="Helvetica" font-size="17" lengthAdjust="spacing" textLength="83" x="41" y="193.5698">certificate</text></g><!--class gcp_resource--><g id="elem_gcp_resource"><rect codeLine="26" fill="#3D176E" height="39.7891" id="gcp_resource" rx="2.5" ry="2.5" style="stroke:#000D19;stroke-width:0.5;" width="150" x="166.5" y="167.79"/><ellipse cx="181.5" cy="187.6845" fill="#ADD1B2" rx="11" ry="11" style="stroke:#181818;stroke-width:1.0;"/><path d="M184.4688,193.3252 Q183.8906,193.622 183.25,193.7627 Q182.6094,193.9189 181.9063,193.9189 Q179.4063,193.9189 178.0781,192.2783 Q176.7656,190.622 176.7656,187.497 Q176.7656,184.372 178.0781,182.7158 Q179.4063,181.0595 181.9063,181.0595 Q182.6094,181.0595 183.25,181.2158 Q183.9063,181.372 184.4688,181.6689 L184.4688,184.3877 Q183.8438,183.8095 183.25,183.5439 Q182.6563,183.2627 182.0313,183.2627 Q180.6875,183.2627 180,184.3408 Q179.3125,185.4033 179.3125,187.497 Q179.3125,189.5908 180,190.6689 Q180.6875,191.7314 182.0313,191.7314 Q182.6563,191.7314 183.25,191.4658 Q183.8438,191.1845 184.4688,190.6064 L184.4688,193.3252 Z " fill="#000000"/><text fill="#D9B8FF" font-family="Helvetica" font-size="17" lengthAdjust="spacing" textLength="108" x="200.5" y="193.5698">gcp_resource</text></g><!--class gcp_ssl_certificate--><g id="elem_gcp_ssl_certificate"><rect codeLine="29" fill="#3D176E" height="39.7891" id="gcp_ssl_certificate" rx="2.5" ry="2.5" style="stroke:#000D19;stroke-width:0.5;" width="192" x="58.5" y="328.58"/><ellipse cx="73.5" cy="348.4745" fill="#ADD1B2" rx="11" ry="11" style="stroke:#181818;stroke-width:1.0;"/><path d="M76.4688,354.1152 Q75.8906,354.412 75.25,354.5527 Q74.6094,354.7089 73.9063,354.7089 Q71.4063,354.7089 70.0781,353.0683 Q68.7656,351.412 68.7656,348.287 Q68.7656,345.162 70.0781,343.5058 Q71.4063,341.8495 73.9063,341.8495 Q74.6094,341.8495 75.25,342.0058 Q75.9063,342.162 76.4688,342.4589 L76.4688,345.1777 Q75.8438,344.5995 75.25,344.3339 Q74.6563,344.0527 74.0313,344.0527 Q72.6875,344.0527 72,345.1308 Q71.3125,346.1933 71.3125,348.287 Q71.3125,350.3808 72,351.4589 Q72.6875,352.5214 74.0313,352.5214 Q74.6563,352.5214 75.25,352.2558 Q75.8438,351.9745 76.4688,351.3964 L76.4688,354.1152 Z " fill="#000000"/><text fill="#D9B8FF" font-family="Helvetica" font-size="17" lengthAdjust="spacing" textLength="150" x="92.5" y="354.3598">gcp_ssl_certificate</text></g><!--class resource--><g id="elem_resource"><rect codeLine="32" fill="#3D176E" height="39.7891" id="resource" rx="2.5" ry="2.5" style="stroke:#000D19;stroke-width:0.5;" width="113" x="98" y="7"/><ellipse cx="113" cy="26.8945" fill="#ADD1B2" rx="11" ry="11" style="stroke:#181818;stroke-width:1.0;"/><path d="M115.9688,32.5352 Q115.3906,32.832 114.75,32.9727 Q114.1094,33.1289 113.4063,33.1289 Q110.9063,33.1289 109.5781,31.4883 Q108.2656,29.832 108.2656,26.707 Q108.2656,23.582 109.5781,21.9258 Q110.9063,20.2695 113.4063,20.2695 Q114.1094,20.2695 114.75,20.4258 Q115.4063,20.582 115.9688,20.8789 L115.9688,23.5977 Q115.3438,23.0195 114.75,22.7539 Q114.1563,22.4727 113.5313,22.4727 Q112.1875,22.4727 111.5,23.5508 Q110.8125,24.6133 110.8125,26.707 Q110.8125,28.8008 111.5,29.8789 Q112.1875,30.9414 113.5313,30.9414 Q114.1563,30.9414 114.75,30.6758 Q115.3438,30.3945 115.9688,29.8164 L115.9688,32.5352 Z " fill="#000000"/><text fill="#D9B8FF" font-family="Helvetica" font-size="17" lengthAdjust="spacing" textLength="71" x="132" y="32.7798">resource</text></g><!--reverse link resource to certificate--><g id="link_resource_certificate"><path codeLine="35" d="M135.7541,62.9188 C119.4141,93.4388 96.15,136.9 79.79,167.46 " fill="none" id="resource-backto-certificate" style="stroke:#FFAF37;stroke-width:2.0;"/><polygon fill="none" points="144.25,47.05,130.4645,60.0868,141.0437,65.7508,144.25,47.05" style="stroke:#FFAF37;stroke-width:2.0;"/></g><!--reverse link resource to gcp_resource--><g id="link_resource_gcp_resource"><path codeLine="36" d="M173.6423,62.8341 C190.3723,93.3541 214.22,136.9 230.97,167.46 " fill="none" id="resource-backto-gcp_resource" style="stroke:#FFAF37;stroke-width:2.0;"/><polygon fill="none" points="164.99,47.05,168.3809,65.7182,178.9037,59.95,164.99,47.05" style="stroke:#FFAF37;stroke-width:2.0;"/></g><!--reverse link certificate to gcp_ssl_certificate--><g id="link_certificate_gcp_ssl_certificate"><path codeLine="37" d="M88.2459,223.7088 C104.5859,254.2288 127.85,297.69 144.21,328.25 " fill="none" id="certificate-backto-gcp_ssl_certificate" style="stroke:#FFAF37;stroke-width:2.0;"/><polygon fill="none" points="79.75,207.84,82.9563,226.5408,93.5355,220.8768,79.75,207.84" style="stroke:#FFAF37;stroke-width:2.0;"/></g><!--reverse link gcp_resource to gcp_ssl_certificate--><g id="link_gcp_resource_gcp_ssl_certificate"><path codeLine="38" d="M222.3577,223.6241 C205.6277,254.1441 181.78,297.69 165.03,328.25 " fill="none" id="gcp_resource-backto-gcp_ssl_certificate" style="stroke:#FFAF37;stroke-width:2.0;"/><polygon fill="none" points="231.01,207.84,217.0963,220.74,227.6191,226.5082,231.01,207.84" style="stroke:#FFAF37;stroke-width:2.0;"/></g><!--SRC=[XP3DRi8m48JlVWfBd952KHiYzK8ZLUq5LQLtPEmrM2HsjDuKqPztBnHAZKtWw9dFExExD0eur0rjU0tr7D0plpAs4IXgFaPqwz9L3dbFQw67UMm-EajNWOceWJz1zGvaf8Y9jwMHAmlUyvl0UX1ojK3NMhKVJoYitrfWAQ3AIdW_9a8pRmc2CggOZxIEoNXeRwW6-Hqac4C5U42oB5E38aQkHbtS-qXCpGVmGNYqYID8QYOHlzJ5bZiYA9ai-kTtTdmHIXcxuBU1zhhlX1RmH9ykXNBh7Qr5vSCOJu3WQDD0cMm5nKZf_2pyt0KpkJiTbu1azBOm0VzaxFiWBsGpG_2kHPdetbUpZc-dNuwl-wz-lnz6nLOOnyBP_tQKoauQTcC_]--></g></svg>

<svg xmlns="http://www.w3.org/2000/svg" width="323" height="374" viewBox="0 0 323 374"><rect width="125" height="39.789" x="7" y="167.79" fill="#3D176E" rx="2.5" ry="2.5" style="stroke:#000d19;stroke-width:.5"/><circle cx="22" cy="187.685" r="11" fill="#ADD1B2" style="stroke:#181818;stroke-width:1"/><path d="M24.969 193.325q-.578.297-1.219.438-.64.156-1.344.156-2.5 0-3.828-1.64-1.312-1.657-1.312-4.782t1.312-4.781q1.328-1.656 3.828-1.656.703 0 1.344.156.656.156 1.219.453v2.719q-.625-.578-1.219-.844-.594-.281-1.219-.281-1.343 0-2.031 1.078-.687 1.062-.687 3.156t.687 3.172q.688 1.062 2.031 1.062.625 0 1.219-.265.594-.281 1.219-.86z"/><text x="41" y="193.57" fill="#D9B8FF" font-family="Helvetica" font-size="17" textLength="83">certificate</text><rect width="150" height="39.789" x="166.5" y="167.79" fill="#3D176E" rx="2.5" ry="2.5" style="stroke:#000d19;stroke-width:.5"/><circle cx="181.5" cy="187.685" r="11" fill="#ADD1B2" style="stroke:#181818;stroke-width:1"/><path d="M184.469 193.325q-.578.297-1.219.438-.64.156-1.344.156-2.5 0-3.828-1.64-1.312-1.657-1.312-4.782t1.312-4.781q1.328-1.656 3.828-1.656.703 0 1.344.156.656.156 1.219.453v2.719q-.625-.578-1.219-.844-.594-.281-1.219-.281-1.344 0-2.031 1.078-.687 1.062-.687 3.156t.687 3.172q.688 1.062 2.031 1.062.625 0 1.219-.265.594-.281 1.219-.86z"/><text x="200.5" y="193.57" fill="#D9B8FF" font-family="Helvetica" font-size="17" textLength="108">gcp_resource</text><rect width="192" height="39.789" x="58.5" y="328.58" fill="#3D176E" rx="2.5" ry="2.5" style="stroke:#000d19;stroke-width:.5"/><circle cx="73.5" cy="348.474" r="11" fill="#ADD1B2" style="stroke:#181818;stroke-width:1"/><path d="M76.469 354.115q-.578.297-1.219.438-.64.156-1.344.156-2.5 0-3.828-1.64-1.312-1.657-1.312-4.782t1.312-4.781q1.328-1.656 3.828-1.656.703 0 1.344.156.656.156 1.219.453v2.719q-.625-.579-1.219-.844-.594-.281-1.219-.281-1.344 0-2.031 1.078-.687 1.062-.687 3.156t.687 3.172q.688 1.062 2.031 1.062.625 0 1.219-.265.594-.281 1.219-.86z"/><text x="92.5" y="354.36" fill="#D9B8FF" font-family="Helvetica" font-size="17" textLength="150">gcp_ssl_certificate</text><rect width="113" height="39.789" x="98" y="7" fill="#3D176E" rx="2.5" ry="2.5" style="stroke:#000d19;stroke-width:.5"/><circle cx="113" cy="26.895" r="11" fill="#ADD1B2" style="stroke:#181818;stroke-width:1"/><path d="M115.969 32.535q-.578.297-1.219.438-.64.156-1.344.156-2.5 0-3.828-1.64-1.312-1.657-1.312-4.782t1.312-4.781q1.328-1.656 3.828-1.656.703 0 1.344.156.656.156 1.219.453v2.719q-.625-.578-1.219-.844-.594-.281-1.219-.281-1.344 0-2.031 1.078-.687 1.062-.687 3.156t.687 3.172q.688 1.062 2.031 1.062.625 0 1.219-.265.594-.281 1.219-.86z"/><text x="132" y="32.78" fill="#D9B8FF" font-family="Helvetica" font-size="17" textLength="71">resource</text><path fill="none" d="M135.754 62.919C119.414 93.439 96.15 136.9 79.79 167.46m64.46-120.41-13.786 13.037 10.58 5.664zm29.392 15.784c16.73 30.52 40.578 74.066 57.328 104.626M164.99 47.05l3.39 18.668 10.524-5.768zM88.246 223.709c16.34 30.52 39.604 73.981 55.964 104.541M79.75 207.84l3.206 18.7 10.58-5.663z" style="stroke:#ffaf37;stroke-width:2"/><g fill="none"><path d="M222.358 223.624c-16.73 30.52-40.578 74.066-57.328 104.626" style="stroke:#ffaf37;stroke-width:2"/><path d="m231.01 207.84-13.914 12.9 10.523 5.768z" style="stroke:#ffaf37;stroke-width:2"/></g></svg>
